spyder/images/dark/versplit.svg

<svg xmlns="http://www.w3.org/2000/svg" width="24" height="24" fill="none"><path fill="#FAFAFA" d="M3 6v12h18V6H3Zm16 10H5v-3h14v3ZM5 11V8h14v3H5Z"/></svg>

<svg width="24" height="24" viewBox="0 0 24 24" fill="none" xmlns="http://www.w3.org/2000/svg">
<path d="M3 6V18H21V6H3ZM19 16H5V13H19V16ZM5 11V8H19V11H5Z" fill="#FAFAFA"/>
</svg>
